symbols/web/schedule_send/materialsymbolsoutlined/schedule_send_wght300grad200fill1_40px.svg

<svg xmlns="http://www.w3.org/2000/svg" height="40" width="40"><path d="M5.292 32.625V22.75l11.833-2.875-11.833-2.917V7.125L30.167 17.75H28q-4.083.125-7.146 2.729-3.062 2.604-3.437 6.604v.375Zm23.041 4.167q-3.333 0-5.708-2.375t-2.375-5.709q0-3.333 2.375-5.708t5.708-2.375q3.292 0 5.667 2.375t2.375 5.708q0 3.334-2.375 5.709-2.375 2.375-5.667 2.375Zm2.875-3.917 1.167-1.208-3.292-3.25v-5.459h-1.666v6.167Z"/></svg>

<svg xmlns="http://www.w3.org/2000/svg" height="40" width="40"><path d="M5.292 32.625V22.75L17.125 19.875L5.292 16.958V7.125L30.167 17.75Q29.75 17.75 29.333 17.75Q28.917 17.75 28 17.75Q23.917 17.875 20.854 20.479Q17.792 23.083 17.417 27.083Q17.417 27.208 17.417 27.271Q17.417 27.333 17.417 27.458ZM28.333 36.792Q25 36.792 22.625 34.417Q20.25 32.042 20.25 28.708Q20.25 25.375 22.625 23Q25 20.625 28.333 20.625Q31.625 20.625 34 23Q36.375 25.375 36.375 28.708Q36.375 32.042 34 34.417Q31.625 36.792 28.333 36.792ZM31.208 32.875 32.375 31.667 29.083 28.417V22.958H27.417V29.125Z"/></svg>
